X:1
T: Garthland's Strathspey
C:James MacDonald
R:Strathspey
Q: 128
K:G
M:4/4
L:1/16
|:D2|G4 B3G Bd3 g4|G4 cBAG FA3 A3B|G4 B3G Bd3 g4|c3A cBAG DG3 G2D2|
G4 B3G Bd3 g4|G4 cBAG FA3 A3B|G4 B3G Bd3 g4|c3A cBAG DG3 G2:|
|:dc|Bd3 d3g bagf g4|BG3 d3G FA3 A2dc|Bd3 d3g bagf g4|c3A d2ec BG3 G2dc|
Bd3 d3g bagf g3d|BG3 d3G FA3 A2Bc|d3c B3A B3G F3E|FD3 d2ec BG3 G2:|
